other/ThinkFreeOfficeViewer.svg

<?xml version="1.0" encoding="UTF-8" standalone="no"?>
<svg
   xmlns:dc="http://purl.org/dc/elements/1.1/"
   xmlns:cc="http://creativecommons.org/ns#"
   xmlns:rdf="http://www.w3.org/1999/02/22-rdf-syntax-ns#"
   xmlns:svg="http://www.w3.org/2000/svg"
   xmlns="http://www.w3.org/2000/svg"
   xmlns:sodipodi="http://sodipodi.sourceforge.net/DTD/sodipodi-0.dtd"
   xmlns:inkscape="http://www.inkscape.org/namespaces/inkscape"
   width="48"
   height="48"
   viewBox="0 0 48 48"
   version="1.1"
   id="svg4"
   sodipodi:docname="ThinkFreeOfficeViewer.svg"
   inkscape:version="0.92.3 (2405546, 2018-03-11)">
  <metadata
     id="metadata10">
    <rdf:RDF>
      <cc:Work
         rdf:about="">
        <dc:format>image/svg+xml</dc:format>
        <dc:type
           rdf:resource="http://purl.org/dc/dcmitype/StillImage" />
        <dc:title />
      </cc:Work>
    </rdf:RDF>
  </metadata>
  <defs
     id="defs8" />
  <sodipodi:namedview
     pagecolor="#858585"
     bordercolor="#666666"
     borderopacity="1"
     objecttolerance="10"
     gridtolerance="10"
     guidetolerance="10"
     inkscape:pageopacity="0"
     inkscape:pageshadow="2"
     inkscape:window-width="1920"
     inkscape:window-height="1046"
     id="namedview6"
     showgrid="false"
     inkscape:zoom="9.8333333"
     inkscape:cx="10.455226"
     inkscape:cy="31.536554"
     inkscape:window-x="0"
     inkscape:window-y="0"
     inkscape:window-maximized="1"
     inkscape:current-layer="svg4" />
  <path
     style="fill:#ffffff"
     d="M 7 5 C 5.892 5 5 5.892 5 7 L 5 41 C 5 42.108 5.892 43 7 43 L 41 43 C 42.108 43 43 42.108 43 41 L 43 7 C 43 5.892 42.108 5 41 5 L 7 5 z M 24.28125 5.6835938 C 25.171388 5.6848637 25.422881 5.7646489 28.480469 7.0078125 C 38.576735 11.112783 41.194312 12.22684 41.570312 12.580078 C 42.360535 13.322466 42.333984 12.901971 42.333984 24.019531 C 42.333984 33.79284 42.322929 34.25106 42.080078 34.724609 C 41.940547 34.996688 41.681848 35.353399 41.505859 35.517578 C 41.329871 35.681758 39.809766 36.378897 38.126953 37.068359 C 36.444138 37.75782 32.907578 39.210215 30.267578 40.294922 C 25.526529 42.242892 25.453398 42.267203 24.333984 42.306641 C 23.425673 42.338641 23.048039 42.289099 22.433594 42.056641 L 21.666016 41.767578 L 21.666016 24.017578 L 21.666016 6.2675781 L 22.5 5.9746094 C 23.059686 5.778043 23.64521 5.6826874 24.28125 5.6835938 z M 18.933594 7.4472656 L 18.96875 15.792969 C 18.98779 20.382693 18.98779 27.892697 18.96875 32.482422 L 18.933594 40.828125 L 17.666016 40.167969 L 16.400391 39.509766 L 16.400391 24.138672 L 16.400391 8.765625 L 17.666016 8.1074219 L 18.933594 7.4472656 z M 13.623047 10.197266 C 13.646657 10.197266 13.666016 16.431704 13.666016 24.050781 C 13.666016 35.026346 13.632047 37.900738 13.5 37.886719 C 13.40833 37.877019 12.808163 37.59344 12.166016 37.257812 L 10.998047 36.648438 L 11.033203 24.087891 L 11.066406 11.529297 L 12.324219 10.863281 C 13.015612 10.497099 13.599442 10.197266 13.623047 10.197266 z M 26.966797 12.082031 C 26.911797 12.084331 26.867188 15.747904 26.867188 20.224609 L 26.867188 28.365234 L 29.558594 24.791016 C 31.038657 22.825977 32.627798 20.718166 33.091797 20.107422 L 33.935547 18.998047 L 33.900391 25.232422 L 33.867188 31.466797 L 31.132812 32.025391 C 29.629479 32.332843 28.054479 32.656349 27.632812 32.744141 L 26.867188 32.904297 L 26.867188 34.486328 L 26.867188 36.066406 L 27.767578 35.808594 C 28.262578 35.666506 31.291667 34.819112 34.5 33.925781 L 40.333984 32.300781 L 40.333984 31.214844 L 40.333984 30.126953 L 38.166016 30.576172 C 36.974349 30.822861 35.92565 31.05106 35.833984 31.083984 C 35.702221 31.131314 35.666193 29.895424 35.667969 25.181641 C 35.670169 19.313078 35.675785 19.225443 35.919922 19.619141 C 36.056373 19.839141 37.052538 21.518228 38.134766 23.351562 C 39.216992 25.184895 40.15533 26.742833 40.21875 26.8125 C 40.28379 26.88394 40.332479 24.500412 40.332031 21.345703 L 40.332031 15.751953 L 33.699219 13.914062 C 30.051329 12.903422 27.021797 12.079724 26.966797 12.082031 z M 8.1738281 13.058594 C 8.323185 13.123061 8.3300815 14.002258 8.3144531 18.935547 C 8.3040231 22.228235 8.2594138 27.245864 8.2148438 30.085938 L 8.1328125 35.25 L 7.4667969 34.908203 C 7.1001299 34.720855 6.6377361 34.365664 6.4394531 34.119141 C 5.6551151 33.143978 5.6660156 33.293807 5.6660156 24.148438 C 5.6660156 16.117109 5.6774946 15.731115 5.9316406 15.080078 C 6.2194396 14.342826 6.8329579 13.662959 7.4667969 13.376953 C 7.6867969 13.277683 7.9712764 13.140241 8.0996094 13.072266 C 8.1270774 13.057717 8.1524914 13.049384 8.1738281 13.058594 z M 29.267578 15.582031 L 31.033203 15.955078 C 32.004869 16.159943 32.903682 16.348008 33.029297 16.373047 C 33.200618 16.407197 32.78887 16.985246 31.384766 18.685547 C 30.355273 19.932214 29.458412 21.008459 29.390625 21.078125 C 29.315075 21.155775 29.267578 20.117869 29.267578 18.394531 L 29.267578 15.582031 z M 36.361328 17.136719 C 36.310418 17.026333 38.902278 17.548517 39.037109 17.675781 C 39.094089 17.729561 39.123826 18.697104 39.103516 19.828125 L 39.066406 21.884766 L 37.732422 19.552734 C 36.999088 18.269977 36.382676 17.183005 36.361328 17.136719 z "
     id="rect2" />
</svg>

<svg width="48" height="48" version="1.1" viewBox="0 0 48 48" xmlns="http://www.w3.org/2000/svg">
 <path d="m7 5c-1.108 0-2 0.892-2 2v34c0 1.108 0.892 2 2 2h34c1.108 0 2-0.892 2-2v-34c0-1.108-0.892-2-2-2h-34zm17.281 0.68359c0.89014 0.0012699 1.1416 0.081055 4.1992 1.3242 10.096 4.105 12.714 5.219 13.09 5.5723 0.79022 0.74239 0.76367 0.32189 0.76367 11.439 0 9.7733-0.011055 10.232-0.25391 10.705-0.13953 0.27208-0.39823 0.62879-0.57422 0.79297-0.17599 0.16418-1.6961 0.86132-3.3789 1.5508-1.6828 0.68946-5.2194 2.1419-7.8594 3.2266-4.741 1.948-4.8142 1.9723-5.9336 2.0117-0.90831 0.032-1.2859-0.017542-1.9004-0.25l-0.76758-0.28906v-17.75-17.75l0.83398-0.29297c0.55969-0.19657 1.1452-0.29192 1.7812-0.29102zm-5.3477 1.7637 0.035156 8.3457c0.01904 4.5897 0.01904 12.1 0 16.689l-0.035156 8.3457-1.2676-0.66016-1.2656-0.6582v-15.371-15.373l1.2656-0.6582 1.2676-0.66016zm-5.3105 2.75c0.02361 0 0.042969 6.2344 0.042969 13.854 0 10.976-0.033969 13.85-0.16602 13.836-0.09167-0.0097-0.69184-0.29328-1.334-0.62891l-1.168-0.60937 0.035156-12.561 0.033203-12.559 1.2578-0.66602c0.69139-0.36618 1.2752-0.66602 1.2988-0.66602zm13.344 1.8848c-0.055 0.0023-0.099609 3.6659-0.099609 8.1426v8.1406l2.6914-3.5742c1.4801-1.965 3.0692-4.0728 3.5332-4.6836l0.84375-1.1094-0.035156 6.2344-0.033203 6.2344-2.7344 0.55859c-1.5033 0.30745-3.0783 0.63096-3.5 0.71875l-0.76562 0.16016v1.582 1.5801l0.90039-0.25781c0.495-0.14209 3.5241-0.98948 6.7324-1.8828l5.834-1.625v-1.0859-1.0879l-2.168 0.44922c-1.1917 0.24669-2.2404 0.47489-2.332 0.50781-0.13176 0.04733-0.16779-1.1886-0.16602-5.9023 0.0022-5.8686 0.007816-5.9562 0.25195-5.5625 0.13645 0.22 1.1326 1.8991 2.2148 3.7324 1.0822 1.8333 2.0206 3.3913 2.084 3.4609 0.06504 0.07144 0.11373-2.3121 0.11328-5.4668v-5.5938l-6.6328-1.8379c-3.6479-1.0106-6.6774-1.8343-6.7324-1.832zm-18.793 0.97656c0.14936 0.064467 0.15625 0.94366 0.14062 5.877-0.01043 3.2927-0.055039 8.3103-0.099609 11.15l-0.082031 5.1641-0.66602-0.3418c-0.36667-0.18735-0.82906-0.54254-1.0273-0.78906-0.78434-0.97516-0.77344-0.82533-0.77344-9.9707 0-8.0313 0.011479-8.4173 0.26562-9.0684 0.2878-0.73725 0.90132-1.4171 1.5352-1.7031 0.22-0.09927 0.50448-0.23671 0.63281-0.30469 0.027468-0.014549 0.052882-0.022882 0.074219-0.013672zm21.094 2.5234 1.7656 0.37305c0.97167 0.20486 1.8705 0.39293 1.9961 0.41797 0.17132 0.03415-0.24043 0.6122-1.6445 2.3125-1.0295 1.2467-1.9264 2.3229-1.9941 2.3926-0.07555 0.07765-0.12305-0.96026-0.12305-2.6836v-2.8125zm7.0938 1.5547c-0.05091-0.11039 2.541 0.4118 2.6758 0.53906 0.05698 0.05378 0.086717 1.0213 0.066407 2.1523l-0.03711 2.0566-1.334-2.332c-0.73333-1.2828-1.3497-2.3697-1.3711-2.416z" fill="#fff"/>
</svg>
